src/32x32/places/folder-gruvbox-mix-red-mega.svg

<?xml version="1.0" encoding="UTF-8"?>
<svg width="32" height="32" version="1" xmlns="http://www.w3.org/2000/svg">
 <rect x="2" y="11" width="28" height="18" rx="1.4" ry="1.4" opacity=".2"/>
 <path d="m2 22.6c0 0.776 0.6244 1.4 1.4 1.4h25.2c0.776 0 1.4-0.624 1.4-1.4v-15.2c0-0.7756-0.624-1.4-1.4-1.4h-12.6c-2.1 0-2.8-3-4.9-3h-7.7c-0.7756 0-1.4 0.6244-1.4 1.4" fill="#af2528"/>
 <rect x="2" y="9" width="28" height="18" rx="1.4" ry="1.4" opacity=".2"/>
 <rect x="4" y="8" width="24" height="11" rx="1.4" ry="1.4" fill="#f1d9b5"/>
 <rect x="2" y="10" width="28" height="18" rx="1.4" ry="1.4" fill="#f2594b"/>
 <path d="m3.4004 3c-0.7756 0-1.4004 0.6248-1.4004 1.4004v1c0-0.7756 0.6248-1.4004 1.4004-1.4004h7.6996c2.1 0 2.8 3 4.9 3h12.6c0.775 0 1.4 0.6248 1.4 1.4004v-1c0-0.7756-0.625-1.4004-1.4-1.4004h-12.6c-2.1 0-2.8-3-4.9-3z" fill="#f1d9b5" opacity=".1"/>
 <path d="m16 13c-3.314 0-6 2.686-6 6s2.686 6 6 6 6-2.686 6-6-2.686-6-6-6zm-3 3h2l1 1 1-1h2v6h-2v-3l-1 1-1-1v3h-2z" fill="#4c3432"/>
</svg>

<svg xmlns="http://www.w3.org/2000/svg" width="32" height="32" version="1">
 <rect style="opacity:0.2" width="28" height="18" x="2" y="11" rx="1.4" ry="1.4"/>
 <path style="fill:#af2528" d="M 2,22.6 C 2,23.376 2.6244,24 3.4,24 H 28.6 C 29.376,24 30,23.376 30,22.6 V 7.4 C 30,6.6244 29.376,6 28.6,6 H 16 C 13.9,6 13.2,3 11.1,3 H 3.4 C 2.6244,3 2,3.6244 2,4.4"/>
 <rect style="opacity:0.2" width="28" height="18" x="2" y="9" rx="1.4" ry="1.4"/>
 <rect style="fill:#f1d9b5" width="24" height="11" x="4" y="8" rx="1.4" ry="1.4"/>
 <rect style="fill:#f2594b" width="28" height="18" x="2" y="10" rx="1.4" ry="1.4"/>
 <path style="opacity:0.1;fill:#f1d9b5" d="M 3.4004,3 C 2.6248,3 2,3.6248 2,4.4004 V 5.4004 C 2,4.6248 2.6248,4 3.4004,4 H 11.1 C 13.2,4 13.9,7 16,7 H 28.6 C 29.375,7 30,7.6248 30,8.4004 V 7.4004 C 30,6.6248 29.375,6 28.6,6 H 16 C 13.9,6 13.2,3 11.1,3 Z"/>
 <path style="fill:#4c3432" d="M 16,13 C 12.686,13 10,15.686 10,19 10,22.314 12.686,25 16,25 19.314,25 22,22.314 22,19 22,15.686 19.314,13 16,13 Z M 13,16 H 15 V 16 L 16,17 17,16 H 19 V 22 H 17 V 19 L 16,20 15,19 V 22 H 13 Z"/>
</svg>
